X:24
T:The Lover's Story
B:Joyce, P. W.; "Old Irish Folk Music and Songs"
R:song air
H:From the singing of Joe Martin of Kilfinane Co. Limerick
L:1/8
M:3/4
K:G
"With feeling"dB|G2 G>A Bc|d2 B2 gf|e2 c2 BA|B d3 BA|
G2 G>ABc|d2 B2 BA|B2 e>gfd|e4||
((3def)|g2 e2 g2|fdBABc|d2 e2 dB|AG E2 GA|
B2 g2 f/e/d/f/|e2 c2 BA|A2 G2 G2|G4||
